raw/symbols/jpm.svg

<svg width="36" height="36" viewBox="0 0 36 36" fill="none" xmlns="http://www.w3.org/2000/svg">
<rect width="36" height="36" rx="18" fill="#AECFCF"/>
<path d="M7.01677 13.5994H10.9658V13.886H10.7521C10.3339 13.886 10.0602 13.9203 9.93096 13.9889C9.80115 14.0593 9.7148 14.1879 9.67439 14.3753C9.63214 14.5651 9.6107 15.014 9.6107 15.7219V18.633C9.6107 19.3562 9.58315 19.903 9.52681 20.2808C9.46925 20.658 9.3131 21.0261 9.05285 21.3849C8.79382 21.7413 8.44723 22.0187 8.01552 22.2122C7.58259 22.4045 7.08046 22.5 6.5073 22.5C5.86371 22.5 5.36771 22.3806 5.02111 22.1442C4.67391 21.906 4.5 21.6213 4.5 21.2943C4.5 21.0965 4.56185 20.9299 4.68616 20.794C4.81108 20.6599 4.96355 20.5937 5.14542 20.5937C5.33096 20.5937 5.4865 20.6531 5.6102 20.7738C5.73573 20.8944 5.79758 21.0432 5.79758 21.2196C5.79758 21.3243 5.77186 21.4314 5.72103 21.546C5.67511 21.6458 5.65184 21.7199 5.65184 21.7695C5.65184 21.903 5.73022 22.0083 5.88882 22.083C6.04864 22.1565 6.2446 22.1957 6.47913 22.1957C6.95554 22.1957 7.35602 22.0438 7.6824 21.7407C8.00817 21.437 8.20413 21.0787 8.27149 20.6654C8.33762 20.2539 8.37191 19.5723 8.37191 18.6232V15.7182C8.37191 15.0403 8.35109 14.6037 8.3119 14.4065C8.27149 14.21 8.18759 14.074 8.059 13.9987C7.93163 13.9234 7.65056 13.886 7.21885 13.886H7.01677V13.5994Z" fill="#030303"/>
<path d="M14.4557 17.7886H15.0669C15.5586 17.7886 15.9554 17.7414 16.2579 17.641C16.5598 17.5442 16.8127 17.3354 17.0135 17.0207C17.2156 16.7047 17.316 16.3165 17.316 15.8548C17.316 15.1487 17.1428 14.6307 16.7962 14.3C16.4502 13.9693 15.8887 13.804 15.111 13.804C14.8256 13.804 14.607 13.8132 14.4557 13.8309V17.7886ZM14.4557 18.0954V19.8945C14.4557 20.5693 14.4723 21.0096 14.5041 21.2171C14.536 21.4247 14.6205 21.5809 14.7595 21.6807C14.8979 21.783 15.1599 21.8332 15.5439 21.8332H15.828V22.1191H11.9004V21.8332H12.1282C12.495 21.8332 12.7491 21.7854 12.89 21.696C13.0308 21.6023 13.1214 21.4578 13.1594 21.2618C13.1967 21.069 13.2157 20.6158 13.2157 19.9018V15.7176C13.2157 15.0373 13.1967 14.6007 13.1594 14.4029C13.1214 14.2051 13.0369 14.0698 12.9059 13.9938C12.7754 13.9185 12.4919 13.8811 12.0596 13.8811H11.9004V13.5946L12.9732 13.5511C13.8305 13.5162 14.4992 13.4997 14.9793 13.4997C15.8623 13.4997 16.5433 13.5688 17.0197 13.706C17.4979 13.8456 17.8886 14.0893 18.1942 14.4433C18.4997 14.7936 18.6522 15.2387 18.6522 15.7752C18.6522 16.2412 18.5469 16.6508 18.3393 17.0072C18.1317 17.3636 17.8341 17.6343 17.4459 17.818C17.0564 18.0023 16.373 18.0954 15.3945 18.0954H14.4557Z" fill="#030303"/>
<path d="M25.7689 20.6535L28.8692 13.5998H31.5005V13.8864H31.1857C30.7644 13.8864 30.4889 13.9207 30.3591 13.9893C30.2286 14.0603 30.1429 14.1883 30.0988 14.3757C30.0541 14.5655 30.0327 15.015 30.0327 15.7228V19.9071C30.0327 20.5782 30.0492 21.0173 30.0829 21.2255C30.116 21.4318 30.2011 21.5861 30.337 21.6866C30.4736 21.7882 30.7363 21.8384 31.1227 21.8384H31.5005V22.125H27.4002V21.8384H27.7039C28.067 21.8384 28.3187 21.7907 28.4608 21.7013C28.6004 21.6076 28.6922 21.4637 28.732 21.2689C28.7725 21.0742 28.792 20.6211 28.792 19.9071V14.481L25.4339 22.125H25.1283L21.7371 14.481V19.476C21.7371 20.1593 21.7573 20.6241 21.7996 20.8721C21.8418 21.1189 21.971 21.3351 22.189 21.5218C22.407 21.708 22.715 21.8133 23.1094 21.8384V22.125H20.0391V21.8384C20.4052 21.8188 20.7041 21.7184 20.9337 21.5408C21.1646 21.362 21.3048 21.1422 21.3538 20.8844C21.4058 20.6229 21.4316 20.1416 21.4316 19.4362V15.7228C21.4316 15.0444 21.4113 14.6059 21.3715 14.4081C21.3311 14.2103 21.2466 14.075 21.1174 13.9991C20.99 13.9244 20.7084 13.8864 20.273 13.8864H20.0391V13.5998H22.6397L25.7689 20.6535Z" fill="#030303"/>
</svg>

<svg xmlns="http://www.w3.org/2000/svg" width="36" height="36" fill="none"><rect width="36" height="36" fill="#AECFCF" rx="18"/><path fill="#030303" d="M7.017 13.6h3.949v.286h-.214c-.418 0-.692.034-.821.103-.13.07-.216.199-.257.386-.042.19-.063.639-.063 1.347v2.911c0 .723-.028 1.27-.084 1.648a2.52 2.52 0 0 1-.474 1.104 2.54 2.54 0 0 1-1.037.827c-.433.192-.936.288-1.509.288-.643 0-1.14-.12-1.486-.356-.347-.238-.521-.523-.521-.85 0-.198.062-.364.186-.5a.602.602 0 0 1 .46-.2c.185 0 .34.06.464.18.126.12.188.27.188.446a.8.8 0 0 1-.077.326.61.61 0 0 0-.07.224c0 .133.08.238.238.313.16.074.356.113.59.113.477 0 .877-.152 1.203-.455.326-.304.522-.662.59-1.076.066-.411.1-1.093.1-2.042v-2.905c0-.678-.02-1.114-.06-1.312-.04-.196-.124-.332-.253-.407-.127-.076-.408-.113-.84-.113h-.202v-.287ZM14.456 17.789h.61c.493 0 .89-.048 1.192-.148.302-.097.555-.306.756-.62.202-.316.302-.704.302-1.166 0-.706-.173-1.224-.52-1.555-.346-.33-.907-.496-1.685-.496-.285 0-.504.01-.655.027v3.958Zm0 .306v1.8c0 .674.016 1.115.048 1.322.032.208.117.364.255.464.139.102.4.152.785.152h.284v.286H11.9v-.286h.228c.367 0 .621-.048.762-.137a.641.641 0 0 0 .27-.434c.037-.193.056-.646.056-1.36v-4.184c0-.68-.02-1.117-.057-1.315-.038-.198-.122-.333-.253-.41-.13-.075-.414-.112-.846-.112h-.16v-.286l1.073-.044a52.154 52.154 0 0 1 2.006-.051c.883 0 1.564.069 2.04.206.479.14.87.383 1.175.737.306.35.458.796.458 1.332a2.4 2.4 0 0 1-.313 1.232 1.993 1.993 0 0 1-.893.811c-.39.184-1.073.277-2.052.277h-.938ZM25.769 20.654l3.1-7.054H31.5v.286h-.314c-.422 0-.697.035-.827.103-.13.071-.216.2-.26.387-.045.19-.066.639-.066 1.347v4.184c0 .671.016 1.11.05 1.319.033.206.118.36.254.46.137.102.4.152.786.152h.377v.287h-4.1v-.287h.304c.363 0 .615-.047.757-.137a.653.653 0 0 0 .271-.432c.04-.195.06-.648.06-1.362v-5.426l-3.358 7.644h-.306l-3.39-7.644v4.995c0 .683.02 1.148.062 1.396.042.247.171.463.389.65.218.186.526.291.92.316v.287h-3.07v-.287c.366-.02.665-.12.895-.297a1.07 1.07 0 0 0 .42-.657c.052-.261.078-.742.078-1.448v-3.713c0-.679-.02-1.117-.06-1.315-.04-.198-.125-.333-.255-.409-.127-.075-.409-.113-.844-.113h-.234V13.6h2.6l3.13 7.054Z"/></svg>
